X: 1780
T: Orley Benson's Stockyards
B: australian traditional tunes wiki
M:6/8
L:1/8
R: Jig
Q: 3/8=100
K:D
V:1 
A|:"D"f2 e d2 c|"G"Bcd "D"A2 F|"Em"GFG "A"E2 G|"D"F2 G A3|"G"B2 c dcB|
"D"ABA d2 d|"A"cde "A7"B2 c|1"D"d3d2A:|2"D"d3- dAd||
"D"f3- fAd|f3- f2 A|d2 f a2 f|"A7"e3- eAc|"A7"e3- eAc|e3- e2 A|"Em"efe dcB|"D"A3- AAd|
"D"f3- fAd|f3- f2 A|d2 f a2 f|"A7"e3- eBc|"G"d3 cBA|B2c d2 e|"D"faf "A7"eBc|"D"d3|]
% abcbook-tune_id 6342d53a4f55523a1140fbcc


% abcbook-boost 0
% abcbook-tablature 
% abcbook-transpose 
% abcbook-lastupdated 1665324383427
% abcbook-soundfonts 
% abcbook-repeats 1
% NFF Book 2014

